packages/calcite-ui-icons/icons/pie-chart-section-hash-filled-24.svg

<?xml version="1.0" encoding="UTF-8"?><svg id="icons" xmlns="http://www.w3.org/2000/svg" viewBox="0 0 24 24"><defs><style>.cls-1{fill:none;}</style></defs><path d="M12.5,1C6.15918,1,1.02,6.15918,1.02,12.5s5.13918,11.5,11.48,11.5,11.5-5.15918,11.5-11.5S18.84082,1,12.5,1ZM22.97467,12h-3.26764l2.76617-2.76617c.28796.87695.45593,1.80524.50146,2.76617ZM21.1485,6.55853c.35846.52014.66705,1.07568.92834,1.65759l-3.78387,3.78387h-2.58594l5.44147-5.44147ZM13,2.02533c.96094.04553,1.88922.2135,2.76617.50146l-2.76617,2.76617v-3.26764ZM13,6.70703l3.78387-3.78387c.58191.26129,1.13745.56989,1.65759.92834l-5.44147,5.44147v-2.58594ZM13,10.70703l6.24396-6.24396c.46753.39288.90009.82544,1.29297,1.29297l-6.24396,6.24396h-1.29297v-1.29297ZM12.5,23c-5.79004,0-10.5-4.70996-10.5-10.5C2,6.87872,6.44287,2.28882,12,2.02533v10.94467h10.9747c-.26349,5.55713-4.85342,10.03-10.4747,10.03Z"/><rect class="cls-1" width="24" height="24"/></svg>

<svg xmlns="http://www.w3.org/2000/svg" viewBox="0 0 24 24"><path d="M12.5 1C6.16 1 1.02 6.16 1.02 12.5S6.16 24 12.5 24 24 18.84 24 12.5 18.84 1 12.5 1zm10.475 11h-3.268l2.766-2.766c.288.877.456 1.805.502 2.766zm-1.827-5.441c.359.52.668 1.075.929 1.657L18.293 12h-2.586l5.441-5.441zM13 2.025c.96.046 1.89.214 2.766.502L13 5.293V2.025zm0 4.682l3.784-3.784c.582.261 1.137.57 1.657.928L13 9.293V6.707zm0 4l6.244-6.244c.467.393.9.826 1.293 1.293L14.293 12H13v-1.293zM12.5 23C6.71 23 2 18.29 2 12.5 2 6.879 6.443 2.289 12 2.025V12.97h10.975C22.71 18.527 18.12 23 12.5 23z"/><path fill="none" d="M0 0h24v24H0z"/></svg>
